16x16/actions/special_paste.svg

<svg viewBox="0 0 16 16" xmlns="http://www.w3.org/2000/svg"><path d="m5 2v1h-2v11h6v-1h-5v-9h1v1h6v-1h1v5h1v-6h-2v-1zm0 5v1h5v-1zm6.5 2-.479 1.346-1.289-.614.614 1.29-1.346.478 1.346.479-.614 1.289 1.29-.614.478 1.346.479-1.346 1.289.614-.614-1.29 1.346-.478-1.346-.479.614-1.289-1.29.614zm-6.5 1v1h3v-1z" fill="#8b9cbe"/></svg>

<svg viewBox="0 0 16 16" xmlns="http://www.w3.org/2000/svg">
    <path d="M5 2v1H3v11h6v-1H4V4h1v1h6V4h1v5h1V3h-2V2zm0 5v1h5V7zm6.5 2-.479 1.346-1.289-.614.614 1.29L9 11.5l1.346.479-.614 1.289 1.29-.614L11.5 14l.479-1.346 1.289.614-.614-1.29L14 11.5l-1.346-.479.614-1.289-1.29.614zM5 10v1h3v-1z" fill="#f4f4f7"/>
</svg>
